gama.ui.shared/icons_svg/light/overlays/small.collapse.svg

<?xml version="1.0" encoding="UTF-8" standalone="no"?>
<!DOCTYPE svg PUBLIC "-//W3C//DTD SVG 1.1//EN" "http://www.w3.org/Graphics/SVG/1.1/DTD/svg11.dtd">
<svg version="1.1" xmlns="http://www.w3.org/2000/svg" xmlns:xl="http://www.w3.org/1999/xlink" xmlns:dc="http://purl.org/dc/elements/1.1/" viewBox="-832 -3546.0013 16 16" width="16" height="16">
  <defs/>
  <g id="SOURCES" stroke-dasharray="none" fill="none" stroke="none" fill-opacity="1" stroke-opacity="1">
    <title>SOURCES</title>
    <g id="SOURCES_Calque_2">
      <title>Calque 2</title>
      <g id="Group_9520">
        <g id="Graphic_9523"/>
        <g id="Group_9521">
          <title>chevron-double-right</title>
          <g id="Graphic_9522">
            <path d="M -820.83 -3537.88 C -820.62 -3538.06 -820.3 -3538.04 -820.12 -3537.83 C -819.94 -3537.62 -819.96 -3537.3 -820.17 -3537.12 L -823.67 -3534.12 C -823.86 -3533.96 -824.13 -3533.96 -824.32 -3534.12 L -827.82 -3537.12 C -828.03 -3537.3 -828.05 -3537.62 -827.87 -3537.83 C -827.69 -3538.04 -827.37 -3538.06 -827.16 -3537.88 L -823.99 -3535.16 Z M -820.83 -3541.88 C -820.62 -3542.06 -820.3 -3542.04 -820.12 -3541.83 C -819.94 -3541.62 -819.96 -3541.3 -820.17 -3541.12 L -823.67 -3538.12 C -823.86 -3537.96 -824.13 -3537.96 -824.32 -3538.12 L -827.83 -3541.12 C -828.04 -3541.3 -828.06 -3541.62 -827.88 -3541.83 C -827.7 -3542.04 -827.38 -3542.06 -827.17 -3541.88 L -824 -3539.16 Z" fill="white"/>
          </g>
        </g>
        <g id="Group_9533">
          <title>chevron-double-right</title>
          <g id="Graphic_9534">
            <path d="M -820.83 -3536.5597 C -820.62 -3536.7397 -820.3 -3536.7197 -820.12 -3536.5097 C -819.94 -3536.2997 -819.96 -3535.9797 -820.17 -3535.7997 L -823.67 -3532.7997 C -823.86 -3532.6397 -824.13 -3532.6397 -824.32 -3532.7997 L -827.82 -3535.7997 C -828.03 -3535.9797 -828.05 -3536.2997 -827.87 -3536.5097 C -827.69 -3536.7197 -827.37 -3536.7397 -827.16 -3536.5597 L -823.99 -3533.8397 Z M -820.83 -3540.5597 C -820.62 -3540.7397 -820.3 -3540.7197 -820.12 -3540.5097 C -819.94 -3540.2997 -819.96 -3539.9797 -820.17 -3539.7997 L -823.67 -3536.7997 C -823.86 -3536.6397 -824.13 -3536.6397 -824.32 -3536.7997 L -827.83 -3539.7997 C -828.04 -3539.9797 -828.06 -3540.2997 -827.88 -3540.5097 C -827.7 -3540.7197 -827.38 -3540.7397 -827.17 -3540.5597 L -824 -3537.8397 Z" fill="#999"/>
          </g>
        </g>
      </g>
    </g>
  </g>
</svg>

<svg height="16" viewBox="-832 -3546.001 16 16" width="16" xmlns="http://www.w3.org/2000/svg"><g fill="none"><path d="m-820.83-3537.88c.21-.18.53-.16.71.05s.16.53-.05.71l-3.5 3c-.19.16-.46.16-.65 0l-3.5-3c-.21-.18-.23-.5-.05-.71s.5-.23.71-.05l3.17 2.72zm0-4c.21-.18.53-.16.71.05s.16.53-.05.71l-3.5 3c-.19.16-.46.16-.65 0l-3.51-3c-.21-.18-.23-.5-.05-.71s.5-.23.71-.05l3.17 2.72z" fill="#fff"/><path d="m-820.83-3536.5597c.21-.18.53-.16.71.05s.16.53-.05.71l-3.5 3c-.19.16-.46.16-.65 0l-3.5-3c-.21-.18-.23-.5-.05-.71s.5-.23.71-.05l3.17 2.72zm0-4c.21-.18.53-.16.71.05s.16.53-.05.71l-3.5 3c-.19.16-.46.16-.65 0l-3.51-3c-.21-.18-.23-.5-.05-.71s.5-.23.71-.05l3.17 2.72z" fill="#999"/></g></svg>
